week1assignment/img/SVG/logo_nuff_dark.svg

<svg fill="none" height="40" viewBox="0 0 64 40" width="64" xmlns="http://www.w3.org/2000/svg" xmlns:xlink="http://www.w3.org/1999/xlink"><clipPath id="a"><path d="m0 0h64v39.6472h-64z"/></clipPath><g clip-path="url(#a)"><path d="m37.5649 0-5.5677 8.35146-5.5676-8.35146-26.4296 39.6472h20.1994l6.2302-9.3481 6.2302 9.3481h31.3346zm-2.5222 35.193-8.6131-12.9224-8.6132 12.9224h-9.49835l18.11155-27.16447 18.1115 27.16447zm14.8489 0-15.2163-22.8273 2.8896-4.33717 18.1115 27.16447z" fill="#1b1c21"/></g></svg>

<svg width="64" height="40" viewBox="0 0 64 40" fill="none" xmlns="http://www.w3.org/2000/svg">
<g clip-path="url(#clip0_323_450)">
<path d="M37.5649 0L31.9972 8.35146L26.4296 0L0 39.6472H20.1994L26.4296 30.2991L32.6598 39.6472H63.9944L37.5649 0ZM35.0427 35.193L26.4296 22.2706L17.8164 35.193H8.31805L26.4296 8.02853L44.5411 35.193H35.0427ZM49.8916 35.193L34.6753 12.3657L37.5649 8.02853L55.6764 35.193H49.8916Z" fill="#1B1C21"/>
</g>
<defs>
<clipPath id="clip0_323_450">
<rect width="64" height="39.6472" fill="white"/>
</clipPath>
</defs>
</svg>
